X: 1
T: Beeches Of Bregagh, The
M: 4/4
L: 1/8
R: reel
K: Amaj
EFAB ceea|effe fgag|fece faea|f/g/aec BAcB|
AFEF ABce|effe fgag|fece f/g/aec|1 BABc A2FA:|2 BABc ABce||
a2af g2ge|f2fg fece|afec ABcA|BABc BAFA|
EFAB ceea|effe fgab|afec ABcA|1 BABc ABce:|2 BABc A4||
